!! Isochronous pitch passage.
!! Treble-line.
!! From Brahms, Quintet No. 3, 1st movement, measure 41ff.
!! First violin.
!! 6/8 meter
**kern	**metpos
*M6/8	*M6/8
*tb16	*tb16
=41	=41
16dd-	1
16cc	4
16dd-	3
16cc	4
16dd-	3
16cc	4
16dd-	2
16cc	4
16dd-	3
16cc	4
16dd-	3
16cc	4
=42	=42
16dd-	1
16cc	4
16dd-	3
16cc	4
16b-	3
16a-	4
16g	2
16a-	4
16g	3
16a-	4
16b-	3
16cc	4
=43	=43
16dd-	1
16cc	4
16dd-	3
16cc	4
16b-	3
16a-	4
16g	2
16a-	4
16g	3
16a-	4
16b-	3
16cc	4
=44	=44
16dd-	1
16gg	4
16bb-	3
16ddd-	4
16bb-	3
16gg	4
16dd-	2
16b-	4
16g	3
16d-	4
16g	3
16b-	4
=45	=45
16cc	1
16b-	4
16cc	3
16b-	4
16a-	3
16g	4
16f#	2
16g	4
16f#	3
16g	4
16an	3
16b-	4
=46	=46
16cc	1
16b-	4
16cc	3
16b-	4
16a-	3
16g	4
16f#	2
16g	4
16f#	3
16g	4
16an	3
16b-	4
=47	=47
16cc	1
16ff#	4
16aa	3
16ccc	4
16aa	3
16ff#	4
16cc	2
16a	4
16f#	3
16c	4
16f#	3
16a	4
=48	=48
16b-	1
16dd-	4
16ffn	3
16bb-	4
16ff	3
16dd-	4
16b-	2
16f	4
16d-	3
16B-	4
16d-	3
16f	4
=49	=49
16b-	1
16een	4
16gg	3
16bb-	4
16gg	3
16ee	4
16b-	2
16g	4
16en	3
16B-	4
16e	3
16g	4
=50	=50
*-	*-
